src/assets/bold/lm-trash-bold.svg

<svg width="24" height="24" viewBox="0 0 24 24" fill="none" xmlns="http://www.w3.org/2000/svg" fill="currentColor">
<path d="M10 3.75H14C14.0663 3.75 14.1299 3.77634 14.1768 3.82322C14.2237 3.87011 14.25 3.9337 14.25 4V6.25H9.75V4C9.75 3.9337 9.77634 3.87011 9.82322 3.82322C9.87011 3.77634 9.9337 3.75 10 3.75ZM15.75 6.25V4C15.75 3.53587 15.5656 3.09075 15.2374 2.76256C14.9092 2.43437 14.4641 2.25 14 2.25H10C9.53587 2.25 9.09075 2.43437 8.76256 2.76256C8.43437 3.09075 8.25 3.53587 8.25 4V6.25H5.00877C5.00349 6.24994 4.9982 6.24994 4.9929 6.25H4C3.58579 6.25 3.25 6.58579 3.25 7C3.25 7.41421 3.58579 7.75 4 7.75H4.3099L5.25021 19.0337C5.25898 19.7508 5.54767 20.4368 6.05546 20.9445C6.57118 21.4603 7.27065 21.75 8 21.75H16C16.7293 21.75 17.4288 21.4603 17.9445 20.9445C18.4523 20.4368 18.741 19.7508 18.7498 19.0337L19.6901 7.75H20C20.4142 7.75 20.75 7.41421 20.75 7C20.75 6.58579 20.4142 6.25 20 6.25H19.0071C19.0018 6.24994 18.9965 6.24994 18.9912 6.25H15.75ZM5.8151 7.75H18.1849L17.2526 18.9377C17.2509 18.9584 17.25 18.9792 17.25 19C17.25 19.3315 17.1183 19.6495 16.8839 19.8839C16.6495 20.1183 16.3315 20.25 16 20.25H8C7.66848 20.25 7.35054 20.1183 7.11612 19.8839C6.8817 19.6495 6.75 19.3315 6.75 19C6.75 18.9792 6.74914 18.9584 6.74741 18.9377L5.8151 7.75ZM10 10.25C10.4142 10.25 10.75 10.5858 10.75 11V17C10.75 17.4142 10.4142 17.75 10 17.75C9.58579 17.75 9.25 17.4142 9.25 17V11C9.25 10.5858 9.58579 10.25 10 10.25ZM14 10.25C14.4142 10.25 14.75 10.5858 14.75 11V17C14.75 17.4142 14.4142 17.75 14 17.75C13.5858 17.75 13.25 17.4142 13.25 17V11C13.25 10.5858 13.5858 10.25 14 10.25Z" fill="black"/>
</svg>

<svg xmlns="http://www.w3.org/2000/svg" width="24" height="24" fill="currentColor" viewBox="0 0 24 24">
  <path d="M10 3.75h4a.25.25 0 0 1 .25.25v2.25h-4.5V4a.25.25 0 0 1 .25-.25Zm5.75 2.5V4A1.75 1.75 0 0 0 14 2.25h-4A1.75 1.75 0 0 0 8.25 4v2.25H5.009a.7.7 0 0 0-.016 0H4a.75.75 0 0 0 0 1.5h.31l.94 11.284A2.75 2.75 0 0 0 8 21.75h8a2.75 2.75 0 0 0 2.75-2.716l.94-11.284H20a.75.75 0 0 0 0-1.5h-4.25Zm-9.935 1.5h12.37l-.932 11.188a.761.761 0 0 0-.003.062A1.25 1.25 0 0 1 16 20.25H8A1.25 1.25 0 0 1 6.75 19c0-.02 0-.042-.003-.062L5.815 7.75ZM10 10.25a.75.75 0 0 1 .75.75v6a.75.75 0 0 1-1.5 0v-6a.75.75 0 0 1 .75-.75Zm4 0a.75.75 0 0 1 .75.75v6a.75.75 0 0 1-1.5 0v-6a.75.75 0 0 1 .75-.75Z"/>
</svg>
